/* XPM */
static char *dde6430a27a94b52f53f0fc2ba4563abDWWsMkX9BjHXsDq3[] = {
/* columns rows colors chars-per-pixel */
"32 32 14 1 ",
"  c None",
". c black",
"X c #330A0A",
"o c #2A2424",
"O c #2A2828",
"+ c #393939",
"@ c #4D1818",
"# c #492E08",
"$ c #6D2A2A",
"% c #5C411A",
"& c #232F4B",
"* c #7C7A76",
"= c #E2CB9B",
"- c white",
/* pixels */
"                                ",
"           ....                 ",
"           ==**                 ",
"           ===*                 ",
"           ====                 ",
"           ===@X                ",
"            @-@@XX              ",
"           @@&&@@@X             ",
"           @@&&@@@X             ",
"           X@&&@@@@X            ",
"           X@&&@@X@X            ",
"           X@&&@@X@@X           ",
"           X@&&@@X @X           ",
"          XX@&&@@X XX           ",
"         XXX@&&@@X$@X           ",
"    ++++++++++=$$$@@            ",
"      #%#%++oo=@@@@             ",
"       ==  X...@@XX             ",
"           X...@@XX             ",
"           X.. @@@X             ",
"          XX.  @@@XX            ",
"          XX.  @@@@X            ",
"         XXX.  @@@@X            ",
"         XXX   @@@@X            ",
"         XXX   X@@@XX           ",
"         XXX    X@XXX           ",
"         ..        ..           ",
"         ..         ..          ",
"         OO         OO          ",
"         OO          OO         ",
"        OOO        OOOO         ",
"                                "
};
