/* XPM */
static char *e36733c1c3c743dbc7472cc7ceb1a87c44uEuWNge7uRRWAn[] = {
/* columns rows colors chars-per-pixel */
"32 32 3 1 ",
"  c None",
". c #075509",
"X c white",
/* pixels */
"                                ",
"                                ",
"                                ",
"                                ",
"                                ",
"     ......................     ",
"     .....XXXXXXXXXXXXX....     ",
"     .....XXXXXXXX..XXX....     ",
"     .....XXXXXXXX..XXX....     ",
"     .....XXXXXXXXXXXXX....     ",
"     .....XX.........XX....     ",
"     .....X..XX......XX....     ",
"     .....X..X.....X.......     ",
"     .....XXXX....XXX......     ",
"     .....XXXX....XXXXX....     ",
"     .....XXXX....XXXXX....     ",
"     .....XXXX.....XXXX....     ",
"     ...XXXXXX..X..XXXX....     ",
"     ..XX.......X...XXX....     ",
"     ..X.......XXX..XXX....     ",
"     ..XXXXXXXXXXX..XXX....     ",
"     .....XXXXXXXXX..XX....     ",
"     .....XXXXXXXXX..XX....     ",
"     .....XXXXXXXXXXXXX....     ",
"     .....XXXXXXXX..XX.....     ",
"     ...XXXXXXXXX..XX......     ",
"     ......................     ",
"                                ",
"                                ",
"                                ",
"                                ",
"                                "
};
