/* XPM */
static char *a1468b80fd774ba8f0852017b178b6a2NxS1HaYoeXjujJe2[] = {
/* columns rows colors chars-per-pixel */
"32 32 8 1 ",
"  c black",
". c #4B2E2E",
"X c #764343",
"o c #675D5D",
"O c #725454",
"+ c #906F5F",
"@ c #876F6F",
"# c #9F6A6A",
/* pixels */
"X#X XXXXXXX#X oXXX##XX X#XXXXXo ",
"X#X @X####XX+ +XXXX##X X####XXX ",
"##X @##@@#XX+ +XoXX#XX XXXXXXX# ",
"   .   .     .        .        X",
"O+XXXXX X###XXX oXXXXXXX XXXXXoO",
"OXXXXXX +#XXXXX #XXXXXXX @#XXXXO",
"OOXXXXX +XXXXXX @##XXX.. ##XXXXO",
"       .       .        .       ",
"+X @++XXXXX  +XXXXX## XXXXXX#@@ ",
"+X @@+XXXXX X###XXX@# #@XOXX### ",
"+X #####XXX X#@@XX+## ##XXXXOO# ",
"  .        .         .         .",
"##.. @..XXXXXXX+ XXXXX+ oX#XXXX ",
"@#XX @X.XXX##XXX XX##XX XX##XXX ",
"@XXX XXXX####@+@ XX#XXX XXX#XXX ",
"    .           .      .       X",
".XXXXXXX .+XXXXXXXX+ #oXXXXXXX#X",
"@XXXXX@@ .XXX@XXXXOO ##XXXXX####",
"@X@XX@.. X..@@XXXXOO ###oXXoXXX#",
"        .     .     .           ",
" o.X#OoXXXXX.@ @#+XXXXXXXXXX@ XX",
" XXX@XXXXXX##@ ##+XXoX++@@##@ XX",
" .XX@XXXXX+##@ ###XXXX+##@#@@ ..",
".             .       X      .  ",
"OXXXo +XOXXoXXXXO @OXXXX @XXX#XX",
"#OXXX XXXXXXXXXOO #OXXXX #OXX#+X",
"##OXX +X+OXX..XOX ##@XXO #####OO",
"     .           .      .       ",
"@.OX#XXXX@ ##XXXXXX+ o##XXoO +X.",
"@#XXoXOO#@ .@.XXXXOX .XXXXX+ XX.",
"@@#XX+X### .###..XXX ..oXXX+ X..",
"          .         .       .   "
};
