/* XPM */
static char *_3f3846939ab408fdad944bbc539b3deqp884sjMVvWGE2Jx[] = {
/* columns rows colors chars-per-pixel */
"32 32 6 1 ",
"  c #2D2610",
". c #443F2E",
"X c #19491D",
"o c #38693C",
"O c #786E50",
"+ c #A39C86",
/* pixels */
"+XX+++++  +++++ +++++++ O++++++ ",
"+oXOOOOO. .O... +..O.O.OOOO.... ",
"+.oOOOOO..OOO..  .OOOOOOOOOOO.. ",
"+OXOOOOO..OOOO. OOOOOOOOOOOOOO. ",
"+OOOOOOOO.OOO.. +.OOOOOOOOOOOO. ",
"OOOOOOOOOOO.... +OOOOOOOOOOOO.. ",
"+OOOOOOOOOO..O. +OOOOOOOOOOOO.. ",
"+.OOOOOOOOOOOO. +.OOOOOOOOOOO.. ",
"+OOOOOOOOOOOO.. +. OOOOOOOOO... ",
"OOOOOOOOOOOOO..   OOOOOOOOOO... ",
"+OOOOOOOOOOOOO. OOOOOOOOOOOOOO. ",
"+OOO..OOO..OO.. +OOOOOOOOOOOO.. ",
"+OO...OOO...O.. +.OOOOOO..OOO.. ",
"+.O...O.O.....  +.OOOOO...OO..  ",
"+.............  +............   ",
"                                ",
"+++++++++++++++ +++++++++++++++ ",
"+.OOOOO..OOO... +....OOOO.O.... ",
"+.OOOOOOOOOOO.. +.OOOOOOOOOOO.. ",
"+OOOOOOOOOOOO.. +OOOOOOOOOOOOO. ",
"+OOOOOOOOOOOOO. +.OOOOOOOOOOOO. ",
"OOOOOOOOOOOOOO. +.OOOOOOOOOOOO. ",
"+OOOOOOOOOOOOO. +OOOOOOOOOOOOO. ",
"+.OOOOOOOOOOOO. +OOOOOOOOOOOOO. ",
"+OOOOOOOOOOOOO. +OOOOOOOOOOOOO. ",
".OOOOOOOOOOOO.. +OOOOOOOOOOOOO. ",
" OOOOOOOOOOOOO. +OOOOOOOOOOXoO. ",
"+OOOOOOOOOOOO.. +OOOO.OOOOOOXXoo",
"+.OOOOOOOOOO... +.OOO OOOOOOOXXX",
"+.OOO..OOO..... +O..O ..OOOO... ",
"+............   +..... .......  ",
"                                "
};
