/* XPM */
static char *_c7908f6e2984ec2fcec7e3e314844fcO5jympmqFd7bsf6Z[] = {
/* columns rows colors chars-per-pixel */
"32 32 14 1 ",
"  c None",
". c black",
"X c #6B0404",
"o c #651414",
"O c #7A7877",
"+ c #9D1E1E",
"@ c #BF0000",
"# c #907C0D",
"$ c #BB4A27",
"% c #BB6427",
"& c gray52",
"* c #B7B6B6",
"= c #CCCBC3",
"- c white",
/* pixels */
"                                ",
"                                ",
"                                ",
"          ---                   ",
"          -=-                   ",
"         ----                   ",
"         -==--                  ",
"         --&=-                  ",
"          -&&-                  ",
"         --&&-                  ",
"         -&=-                   ",
"       ---==-                   ",
"    ----&==-                    ",
"   --=&===&-                    ",
"   -&==&==-             ---     ",
"  --&&==&-            --...-    ",
"  -==&&=-          ---..%%%.-   ",
" --&=&=-        ---....%%%%$.-  ",
" -&=&--      ---...%%%%o%%$$.-  ",
" -==-     ---...***o%%%$.$$$.-  ",
" -&&-  ---...******O.$$$.$..-   ",
"  --  -...*****O**OO.$$...--    ",
"   -- -.@X.**OO*OOOO...---      ",
"    --.##@@.**OOOO...--         ",
"     -.+X@..OOO...---           ",
"      -.+X.OO..---              ",
"       -X....---                ",
"        ------                  ",
"                                ",
"                                ",
"                                ",
"                                "
};
