/* XPM */
static char *_25f1aef24504eb3967dec16bb41ce4eUx8XhylNVb8lAqxb[] = {
/* columns rows colors chars-per-pixel */
"32 32 17 1 ",
"  c None",
". c black",
"X c #0D3A0B",
"o c #325827",
"O c #4F7E41",
"+ c #5B8539",
"@ c #558148",
"# c #5D8951",
"$ c #87B678",
"% c #A5A5A5",
"& c #A2D392",
"* c #D4D59D",
"= c #ECEE9A",
"- c #D7D7B5",
"; c #E7E8AD",
": c #C8C7C7",
"> c white",
/* pixels */
"                                ",
"                                ",
"                                ",
"               ..               ",
"              .X$.              ",
"              .OO.              ",
"             .$XoX.             ",
"             .oXX$.             ",
"            .oX$oX$.            ",
"            .$Ooo$$.            ",
"           .#&OO#o##.           ",
"           .*OXXXXX#.           ",
"          .XXXXOOXXXO.          ",
"          .XX#$$@=;$X.          ",
"         .$$O@===##$OO.         ",
"         .$;Xoooooo###.         ",
"        .#@-#o@--ooo###.        ",
"        .*@#--;;;;#$$XX.        ",
"       .*@..........X=$#.       ",
"       .O....X.>.X...X=$.       ",
"      .o...oOX...XO....$$.      ",
"      ....XoOXXXXXOoX..OO.      ",
"     .....%ooOOOOOoo%....O.     ",
"     .oO.*:>ooOOOoo>:*X..O.     ",
"    .ooOo$*>>ooooo>>**$#O$O.    ",
"    .o&o$&**>>>>>>>**OO$O$O.    ",
"   .$$oo$&$*********$oOOooOX.   ",
"   .Xo$o##+$;***;*;$OO$ooXO#.   ",
"  .oXXo$+$#$OooXXXX#o$O$X#X...  ",
"  ..oXXo$oo*$$*oX$###oOX#X##..  ",
"  ............................  ",
"                                "
};
