/* XPM */
static char *_9d86ccc8fff4417ef518ee796d11bfbHwnoJPvV20dvT3Yv[] = {
/* columns rows colors chars-per-pixel */
"32 32 15 1 ",
"  c None",
". c black",
"X c #072A05",
"o c #0D3A0B",
"O c #325827",
"+ c #4F7E41",
"@ c #5B8539",
"# c #558148",
"$ c #5D8951",
"% c #87B678",
"& c #A2D392",
"* c #D4D59D",
"= c #ECEE9A",
"- c #D7D7B5",
"; c #E7E8AD",
/* pixels */
"               ..               ",
"              .o%.              ",
"              .++.              ",
"             .%oOo.             ",
"             .Ooo%.             ",
"            .Oo%Oo%.            ",
"            .%+OO%%.            ",
"           .$&++$O$$.           ",
"           .*+ooooo$.           ",
"          .oooo++ooo+.          ",
"          .oo$%%#=;%o.          ",
"         .%%+#===$$%++.         ",
"         .%;oOOOOOO$$$.         ",
"        .$#-$O#--OOO$$$.        ",
"        .*#$--;;;;$%%oo.        ",
"       .*#..........o=%$.       ",
"       .+............o=%.       ",
"      .O...............%%.      ",
"      ....X........X...++.      ",
"     ......XoooXXoXX.....+.     ",
"     .O+....XXXXXX.......+.     ",
"    .OO+O.............%$+%+.    ",
"    .O&O%&...........++%+%+.    ",
"   .%%OO%&o.........oO++OO+o.   ",
"   .oO%O$$@o......oo++%OOo+$.   ",
"  .OooO%@%$%+OOoooo$O%+%o$o..   ",
"  ..OooO%OO*%%*Oo%$$$O+o$o$$..  ",
"  ............................  ",
"                                ",
"                                ",
"                                ",
"                                "
};
