/* XPM */
static char *c9fe33b7598d4d48dda9e2a53616e376Rali6uHrST4YagKe[] = {
/* columns rows colors chars-per-pixel */
"32 32 16 1 ",
"  c None",
". c black",
"X c #072A05",
"o c #0D3A0B",
"O c #325827",
"+ c #4F7E41",
"@ c #5B8539",
"# c #558148",
"$ c #5D8951",
"% c #87B678",
"& c #A2D392",
"* c #D4D59D",
"= c #ECEE9A",
"- c #D7D7B5",
"; c #E7E8AD",
": c white",
/* pixels */
"                                ",
"                                ",
"               ..               ",
"              .o%.              ",
"              .++.              ",
"             .%oOo.             ",
"             .Ooo%.             ",
"            .Oo%Oo%.            ",
"            .%+OO%%.            ",
"           .$&++$O$$.           ",
"           .*+ooooo$.           ",
"          .oooo++ooo+.          ",
"          .oo$%%#=;%o.          ",
"         .%%+#===$$%++.         ",
"         .%;oOOOOOO$$$.         ",
"        .$#-$O#--OOO$$$.        ",
"        .*#$--;;;;$%%oo.        ",
"       .*#..........o=%$.       ",
"       .+............o=%.       ",
"      .O..o........o...%%.      ",
"      ....Xo......XX...++.      ",
"     ......XoooXXoX......+.     ",
"     .O+.*...........*o..+.     ",
"    .OO+O%*:.......:**%$+%+.    ",
"    .O&O%&**:::::::**++%+%+.    ",
"   .%%OO%&%*********%O++OO+o.   ",
"   .oO%O$$@%;***;*;%++%OOo+$.   ",
"  .OooO%@%$%+OOoooo$O%+%o$o...  ",
"  ..OooO%OO*%%*Oo%$$$O+o$o$$..  ",
"  ............................  ",
"                                ",
"                                "
};
